X: 12
T: Denis Murphy's
Z: NfldWhistler
S: https://thesession.org/tunes/357#setting48106
R: polka
M: 2/4
L: 1/8
K: Dmaj
|:f/g/f/e/ dB|AD FA|GE e>d|cB AG|
f/g/f/e/ dB|AD FA|GE e>f|1 ed d2:|2 ed dB||
|:Af f2|Bg g2|Af f2|e/f/e/d/ cB|
Af f2|Bg g>a|ba gc|1 ed dB:|2 ed d2||

